demos/barber/images/icons/moustache.svg

<?xml version="1.0" encoding="UTF-8" standalone="no"?><!DOCTYPE svg PUBLIC "-//W3C//DTD SVG 1.1//EN" "http://www.w3.org/Graphics/SVG/1.1/DTD/svg11.dtd"><svg width="100%" height="100%" viewBox="0 0 83 24" version="1.1" xmlns="http://www.w3.org/2000/svg" xmlns:xlink="http://www.w3.org/1999/xlink" xml:space="preserve" style="fill-rule:evenodd;clip-rule:evenodd;stroke-linejoin:round;stroke-miterlimit:1.41421;"><path id="moustache" d="M41.3,3.23c-1.68,-2 -4.88,-4.46 -11.49,-2.53c-9.17,2.68 -9.86,11.08 -16.57,14.74c-6.71,3.66 -11.09,-1.21 -9.36,-7.21c0,0 1.32,3.36 5.29,1.73c3.97,-1.63 2,-5.9 0.81,-6.91c-1.19,-1.01 -6.41,-1.74 -9.05,4.16c-2.64,5.9 0.07,15.66 11.49,16.27c10.65,0.52 23.58,-2.95 28.88,-11.29c5.29,8.34 18.22,11.81 28.88,11.29c11.39,-0.61 14.13,-10.37 11.49,-16.27c-2.64,-5.9 -7.83,-5.21 -9.05,-4.21c-1.22,1 -3.15,5.29 0.81,6.91c3.96,1.62 5.29,-1.73 5.29,-1.73c1.73,6 -2.64,10.88 -9.35,7.22c-6.71,-3.66 -7.37,-12.02 -16.58,-14.7c-6.61,-1.93 -9.79,0.53 -11.49,2.53Z" style="fill:#005a76;fill-rule:nonzero;"/></svg>

<svg xmlns="http://www.w3.org/2000/svg" viewBox="0 0 82.6 23.54"><defs><style>.cls-1{fill:#414042;}</style></defs><title>moustache</title><g id="Layer_2" data-name="Layer 2"><g id="moustache" data-name="Layer 1"><path class="cls-1" d="M41.3,3.23c-1.68-2-4.88-4.46-11.49-2.53-9.17,2.68-9.86,11.08-16.57,14.74S2.15,14.23,3.88,8.23c0,0,1.32,3.36,5.29,1.73s2-5.9.81-6.91S3.57,1.31.93,7.21,1,22.87,12.42,23.48C23.07,24,36,20.53,41.3,12.19,46.59,20.53,59.52,24,70.18,23.48c11.39-.61,14.13-10.37,11.49-16.27S73.84,2,72.62,3s-3.15,5.29.81,6.91,5.29-1.73,5.29-1.73c1.73,6-2.64,10.88-9.35,7.22S62,3.38,52.79.7C46.18-1.23,43,1.23,41.3,3.23Z" style="fill: #bf9456;" /></g></g></svg>
